X:1
T:Title
%%score { 1 | ( 2 3 ) }
L:1/8
M:4/4
K:Bb
V:1 treble nm="Grand Piano"
V:2 bass 
V:3 bass 
V:1
 z4 z2[Q:1/4=100] [B,D][CE] | [DF]2 [DB]2 [DB]2 [DB]2 |[M:3/4] BA AG A2 |[M:1/4] CD | %4
[M:4/4] E2 A2 A2 A2 |[M:3/4] [DG][DF] [DF][_D=E] [=DF]2 |[M:1/4] [B,D][CE] | %7
[M:4/4] [DF]2 [DB]2 [DB]2 [DB]2 |[M:3/4] BA AG A2 |[M:1/4] G2 |[M:4/4] F2 e2 d2 c2 |[M:3/4] [DB]6 | %12
[M:1/4] [DB][DB] |[M:4/4] A2 c2 c2 GA | [DF]2 [DB]2 [DB]2 [DB][DB] | A2 e2 G2 A2 | %16
 [EG]4 [DF]2 [B,D][CE] | [DF]2 [DB]2 [DB]2 [DB]2 | BAAG A2 GG | F2 e2 d2 c2 |[M:7/8] c- c3 [DB]3 |] %21
V:2
 z4 z2 [B,,F,]2 | [B,,B,]2 [B,,F,]2 [B,,F,]2 [B,,B,]2 |[M:3/4] [F,CE][F,CE] [F,CE][F,B,E] [F,CE]2 | %3
[M:1/4] A,B, |[M:4/4] [F,A,C]2 [F,CE]2 [F,CE]2 [F,CE]2 | %5
[M:3/4] [B,,B,][B,,B,] [B,,B,][B,,B,] [B,,B,]2 |[M:1/4] [B,,F,]2 | %7
[M:4/4] [B,,B,]2 [B,,F,]2 [B,,F,]2 [B,,B,]2 |[M:3/4] [F,CE][F,CE] [F,CE][F,B,E] [F,CE]2 | %9
[M:1/4] [F,B,E]2 |[M:4/4] [F,A,E]2 [F,A,G]2 [F,A,F]2 [F,A,E]2 |[M:3/4] [B,,B,]6 | %12
[M:1/4] [B,,B,][B,,B,] |[M:4/4] [F,CE]2 [F,A,E]2 [F,A,E]2 [F,A,E][F,A,E] | %14
 [B,,B,]2 [B,,F,]2 [B,,F,]2 [B,,B,][B,,B,] | [F,CE]2 [F,A,E]2 [F,CE]2 [F,CE]2 | %16
 [B,,B,]4 [B,,B,]2 [B,,F,][B,,F,] | [B,,B,]2 [B,,F,]2 [B,,F,]2 [B,,B,]2 | %18
 [F,CE][F,CE][F,CE][F,B,E] [F,CE]2 [F,B,E][F,B,E] | [F,A,E]2 [F,A,G]2 [F,A,F]2 [F,A,E]2 | %20
[M:7/8] [F,A,E]- [F,A,E]3 [B,,B,]3 |] %21
V:3
 x8 | x8 |[M:3/4] x6 |[M:1/4] F,2 |[M:4/4] x8 |[M:3/4] x6 |[M:1/4] x2 |[M:4/4] x8 |[M:3/4] x6 | %9
[M:1/4] x2 |[M:4/4] x8 |[M:3/4] x6 |[M:1/4] x2 |[M:4/4] x8 | x8 | x8 | x8 | x8 | x8 | x8 | %20
[M:7/8] x7 |] %21

